X: 20
T: Frosty the Snowman   [G]
C: music: Steve Nelson
C: words: Jack Rollins
N: MM version for 2021, with intro & tag
Z: 2016 John Chambers <jc:trillian.mit.edu>
M: C|
L: 1/8
K: G
%%indent 200
"^Intro"|\
"G"ddd2 d2d2 | "D"edd2 d2d2 |\
"D7"d2dd e2f2 | "G"g4 "D7"d4 ||
"A"|: \
"G"d4 B3c | d2 g4 "G7"fg |\
"C"a2g2 "D7"f2e2 | "G"d6 fg |\
"C"a2g2 "A7"f2ee | "G"d2g2 "(E7)"B2de |\
"Am"d2c2 [1 "D7"B2c2 | "G"d6 "D7"z2 :|\
         [2 "D7"B2A2 | "G"G6 H|]
"G7"G2 "B"|\
"C"e2e2 "A7"g2g2 | "D7"f2e2 "G"d2B2 |\
"Am"c2e2 "D7"d2c2 | "G"B6 B-B |\
"D"A2A2 d2d2 | f2f2 "B7"a2fg |\
"Em"a2g2 "A7"f2e2 | "D"d2z2 "D7"d4 "^->A2"y|]
"^Tag"|\
"G"ddd2 d2d2 | edd2 d2d2 |\
e2d2 B2d2 | "D"A8 |\
"D7"ddd2 d2d2 | edd2 d2d2 |\
d2dd e2f2 | "G"g8 |]

%%sep 1 1 500

